svg/system/report_fill.svg

<?xml version="1.0" encoding="UTF-8"?>
<svg width="24px" height="24px" viewBox="0 0 24 24" version="1.1" xmlns="http://www.w3.org/2000/svg" xmlns:xlink="http://www.w3.org/1999/xlink">
    <title>report_fill</title>
    <g id="Icon" stroke="none" stroke-width="1" fill="none" fill-rule="evenodd">
        <g id="System" transform="translate(-624.000000, -432.000000)">
            <g id="report_fill" transform="translate(624.000000, 432.000000)">
                <path d="M24,0 L24,24 L0,24 L0,0 L24,0 Z M12.5935,23.2578 L12.5819,23.2595 L12.5109,23.295 L12.4919,23.2987 L12.4767,23.295 L12.4057,23.2595 C12.3958,23.2564 12.387,23.259 12.3821,23.2649 L12.378,23.2758 L12.3609,23.7031 L12.3659,23.7235 L12.3769,23.7357 L12.4805,23.8097 L12.4953,23.8136 L12.5071,23.8097 L12.6107,23.7357 L12.6233,23.7197 L12.6267,23.7031 L12.6096,23.2758 C12.6076,23.2657 12.601,23.2593 12.5935,23.2578 Z M12.8584,23.1453 L12.8445,23.1473 L12.6598,23.2397 L12.6499,23.2499 L12.6472,23.2611 L12.6651,23.6906 L12.6699,23.7034 L12.6784,23.7105 L12.8793,23.8032 C12.8914,23.8069 12.9022,23.803 12.9078,23.7952 L12.9118,23.7812 L12.8777,23.1665 C12.8753,23.1546 12.8674,23.147 12.8584,23.1453 Z M12.143,23.1473 C12.1332,23.1424 12.1222,23.1453 12.1156,23.1526 L12.1099,23.1665 L12.0758,23.7812 C12.0751,23.7927 12.0828,23.8019 12.0926,23.8046 L12.1083,23.8032 L12.3092,23.7105 L12.3186,23.7024 L12.3225,23.6906 L12.3404,23.2611 L12.3372,23.2485 L12.3278,23.2397 L12.143,23.1473 Z" id="MingCute" fill-rule="nonzero"></path>
                <path d="M12,7 C15.2383886,7 17.8775714,9.56557346 17.9958615,12.7750616 L18,13 L18,20 L19,20 C19.5523,20 20,20.4477 20,21 C20,21.51285 19.613973,21.9355092 19.1166239,21.9932725 L19,22 L5,22 C4.44772,22 4,21.5523 4,21 C4,20.48715 4.38604429,20.0644908 4.88337975,20.0067275 L5,20 L6,20 L6,13 C6,9.68629 8.68629,7 12,7 Z M11.1425,11.9855 L9.65159,14.4704 C9.24768,15.1436 9.7326,16 10.5177,16 L11.7338,16 L11.1425,16.9855 C10.8584,17.4591 11.0119,18.0733 11.4855,18.3575 C11.9591,18.6416 12.5733,18.4881 12.8575,18.0145 L14.3484,15.5296 C14.7523,14.8565 14.2674,14 13.4823,14 L12.2662,14 L12.8575,13.0145 C13.1416,12.5409 12.9881,11.9267 12.5145,11.6425 C12.0409,11.3584 11.4267,11.5119 11.1425,11.9855 Z M5.5418535,5.13866018 L5.63606,5.22185 L6.34317,5.9289525 C6.73369,6.31948 6.73369,6.95264 6.34317,7.34317 C5.98268077,7.70365 5.41545355,7.73137923 5.02316044,7.42635769 L4.9289525,7.34317 L4.22185,6.63606 C3.83132,6.24554 3.83132,5.61237 4.22185,5.22185 C4.58233,4.86136077 5.14956503,4.83363083 5.5418535,5.13866018 Z M19.7782,5.22185 C20.1687,5.61237 20.1687,6.24554 19.7782,6.63606 L19.071,7.34317 C18.6805,7.73369 18.0474,7.73369 17.6568,7.34317 C17.2663,6.95264 17.2663,6.31948 17.6568,5.9289525 L18.3639,5.22185 C18.7545,4.83132 19.3876,4.83132 19.7782,5.22185 Z M12,2 C12.5523,2 13,2.44772 13,3 L13,4 C13,4.55228 12.5523,5 12,5 C11.4477,5 11,4.55228 11,4 L11,3 C11,2.44772 11.4477,2 12,2 Z" id="形状" fill="#09244B"></path>
            </g>
        </g>
    </g>
</svg>

<svg xmlns="http://www.w3.org/2000/svg" width="24" height="24"><g fill="none" fill-rule="evenodd"><path d="M24 0v24H0V0h24ZM12.594 23.258l-.012.002-.071.035-.02.004-.014-.004-.071-.036c-.01-.003-.019 0-.024.006l-.004.01-.017.428.005.02.01.013.104.074.015.004.012-.004.104-.074.012-.016.004-.017-.017-.427c-.002-.01-.009-.017-.016-.018Zm.264-.113-.014.002-.184.093-.01.01-.003.011.018.43.005.012.008.008.201.092c.012.004.023 0 .029-.008l.004-.014-.034-.614c-.003-.012-.01-.02-.02-.022Zm-.715.002a.023.023 0 0 0-.027.006l-.006.014-.034.614c0 .012.007.02.017.024l.015-.002.201-.093.01-.008.003-.011.018-.43-.003-.012-.01-.01-.184-.092Z"/><path fill="#09244B" d="M12 7a6 6 0 0 1 5.996 5.775L18 13v7h1a1 1 0 0 1 .117 1.993L19 22H5a1 1 0 0 1-.117-1.993L5 20h1v-7a6 6 0 0 1 6-6Zm-.857 4.986L9.652 14.47a1.01 1.01 0 0 0 .866 1.53h1.216l-.591.985a1 1 0 0 0 1.714 1.03l1.491-2.485a1.01 1.01 0 0 0-.866-1.53h-1.216l.591-.985a1 1 0 0 0-1.714-1.03ZM5.542 5.139l.094.083.707.707a1 1 0 0 1-1.32 1.497l-.094-.083-.707-.707a1 1 0 0 1 1.32-1.497Zm14.236.083a1 1 0 0 1 0 1.414l-.707.707a1 1 0 1 1-1.414-1.414l.707-.707a1 1 0 0 1 1.414 0ZM12 2a1 1 0 0 1 1 1v1a1 1 0 1 1-2 0V3a1 1 0 0 1 1-1Z"/></g></svg>
